X: 1
T:Old Hag at the Churn (O'Dubhshlaine's Jig)
M:6/8
L:1/8
Q:80
C:Arranged by Dave Rickard
S:Jig
K:HP
|: {gef}e2d{g}eA{G}A|
{gef}e2d{g}eag|
{ef}e2d{g}eA{G}A|  !
{g}Bcd{g}Bcd|
{gef}e2d{g}eA{G}A|
{gef}e2d{g}eag|  !
e{g}e{A}e{g}eA{G}A|
{g}Bcd{g}Bcd:| |:
{g}ea{g}a{gf}g3|  !
{g}ea{g}aBcd|
{g}eaf{gf}g2d|
{g}B{e}B{G}B{g}dB{G}A|  !
{g}ea{g}ag{a}g{f}g|
{g}ea{g}aBcd|
{g}eaf{a}ged|  !
{g}B{e}B{G}B{g}dB{G}A:|
